src/assets/icons/checkmark.svg

<svg width="16" height="16" viewBox="0 0 16 16" fill="none" xmlns="http://www.w3.org/2000/svg">
<g clip-path="url(#clip0_8874_15307)">
<path fill-rule="evenodd" clip-rule="evenodd" d="M14.9664 1.12822C14.8294 1.15793 14.7045 1.21808 14.6076 1.30107C14.5666 1.33612 12.4729 3.88359 9.95492 6.96212C7.43694 10.0406 5.34524 12.5923 5.30675 12.6326C5.22548 12.7175 5.14379 12.7465 5.05586 12.7217C5.0136 12.7098 4.48629 12.2582 3.2252 11.1539C1.45435 9.60333 1.33321 9.49986 1.22495 9.44509C1.00916 9.33597 0.68738 9.33621 0.468834 9.44566C0.280049 9.54019 0.105297 9.73829 0.031844 9.94099C-0.0136794 10.0666 -0.0102566 10.3679 0.0382104 10.5007C0.116986 10.7165 0.0877384 10.6888 2.029 12.3886C3.04183 13.2755 3.92748 14.0414 3.99712 14.0905C4.58692 14.5068 5.36335 14.5614 6.00478 14.2316C6.19076 14.136 6.3818 13.9948 6.52202 13.8493C6.64004 13.7268 15.7804 2.55909 15.8662 2.43244C15.9675 2.28311 15.9989 2.17515 15.9997 1.9744C16.0004 1.78539 15.9738 1.6695 15.9015 1.54655C15.765 1.31416 15.5357 1.15623 15.2815 1.1195C15.132 1.09789 15.1025 1.09871 14.9664 1.12822Z" fill="currentColor"/>
</g>
<defs>
<clipPath id="clip0_8874_15307">
<rect width="16" height="16" fill="white"/>
</clipPath>
</defs>
</svg>

<svg xmlns="http://www.w3.org/2000/svg" width="16" height="16" fill="none">
  <g clip-path="url(#a)">
    <path fill="currentColor" fill-rule="evenodd" d="M14.966 1.128a.82.82 0 0 0-.358.173c-.041.035-2.135 2.583-4.653 5.661-2.518 3.079-4.61 5.63-4.648 5.67-.082.085-.163.114-.251.09-.042-.012-.57-.464-1.83-1.568C1.453 9.604 1.332 9.5 1.224 9.445a.913.913 0 0 0-.756 0 .95.95 0 0 0-.437.496 1.13 1.13 0 0 0 .006.56c.079.216.05.188 1.991 1.888 1.013.886 1.898 1.652 1.968 1.702a1.946 1.946 0 0 0 2.525-.242c.118-.122 9.258-11.29 9.344-11.417A.704.704 0 0 0 16 1.974c0-.189-.026-.304-.098-.427a.872.872 0 0 0-.62-.427.653.653 0 0 0-.316.008Z" clip-rule="evenodd"/>
  </g>
  <defs>
    <clipPath id="a">
      <path fill="#fff" d="M0 0h16v16H0z"/>
    </clipPath>
  </defs>
</svg>
